!!!!SEGMENT: pl-wtm--r-1345_stefani-jozef--mazur-g-nr-2.krn
!!!id: 18xx:2406
!!!COM: Stefani, Józef
!!!COM-rism: pe30024097
!!!CDT: 1800/04/16-1876/03/19
!!!CNT: Polish
!!!OTL: Mazur G Nr 2
!!!PDT:
!!!SMS-siglum: PL-Wtm
!!!SMS-shelfmark: R 1345
!!!NIFC-rismID: 1001119031
!!!URL-scan: http://repozytorium.nifc.pl/skany/pl-wtm-nut--r1345
!!!ONB-nifc:
!!!SMS-variant:
!!!SMS-altvar:
!!!OMD: Wstęp do Mazura. Maestoso.
**kern	**dynam	**kern	**dynam
*part2	*part2	*part1	*part1
*staff2	*	*staff1	*
*I"Piano	*	*I"Piano	*
*>[A,B,C,C,D,E,E,B,C,C,F]	*>[A,B,C,C,D,E,E,B,C,C,F]	*>[A,B,C,C,D,E,E,B,C,C,F]	*>[A,B,C,C,D,E,E,B,C,C,F]
*>A	*>A	*>A	*>A
*clefF4	*	*clefG2	*
*k[b-e-]	*	*k[b-e-]	*
*M3/4	*	*M3/4	*
=1	=1	=1	=1
*all\right	*	*all\right	*
!	!	!	!LO:DY:rj
8GL 8GG/	.	8ggL 8b- 8g\|	ff
16r	.	16r	.
16GJk 16GG/	.	16ggJk 16b- 16g\|	.
8G 8GG/	.	8gg 8b- 8g\|	.
16r	.	16r	.
16GKL 16GG\	.	16bb-KL 16dd 16b-\|	.
8.A 8.AA\	.	8.aa 8.cc 8.a\|	.
16B-Jk 16BB-\	.	16ggJk 16b- 16g\|	.
=2	=2	=2	=2
8cL 8C\	.	8aaL 8ee- 8a\|	.
16r	.	16r	.
16cJk 16C\	.	16aaJk 16ee- 16a\|	.
8c 8C\	.	8aa 8ee- 8a\|	.
16r	.	16r	.
16AKL 16AA\	.	16cccKL 16ee- 16cc\|	.
8.B- 8.BB-\	.	8.bb- 8.dd 8.b-\|	.
16cJk 16C\	.	16aaJk 16cc 16a\|	.
=3	=3	=3	=3
4d 4D\	.	4gg 4b- 4g\|	.
4r	.	4r	.
4r	.	4r	.
=4	=4	=4	=4
4d 4A 4D\	.	4ff#X 4dd 4a\	.
4r	.	4r	.
4r	.	4r	.
!!LO:LB:g=original
=5	=5	=5	=5
*2\right	*	*	*
2.A 2.En 2.C#X\	.	4..aa 4..a\	.
!	!	!LO:N:vis=32	!
.	.	16ggKL 16g\|	.
.	.	8.ff#X 8.f#X\|	.
!	!	!LO:N:vis=32	!
.	.	16eenJk 16en\|	.
=6	=6	=6	=6
*^	*	*	*
4A 4F#X 4D\	4ryy	.	8dd 8d/|>	.
.	.	.	16r	.
!	!	!	!	!LO:DY:rj
.	.	.	16aa\KL|	p
4r	4ryy	.	8ddd\|	.
.	.	.	16r	.
.	.	.	16aa\K|	.
8.GL 8.D/	8.GG\L	.	8.bb-\|	.
16GJk 16D/	16BB-\Jk	.	16gg\Jk|	.
=7	=7	=7	=7	=7
4A 4F#X 4D\	4ryy	.	8ff#X\|	.
.	.	.	16r	.
!	!	!	!	!LO:HP:t=cresc
.	.	.	16a/KL|	<
4r	4ryy	.	8dd/|	.
.	.	.	16r	.
.	.	.	16a/K|	.
8.GL 8.D/	8.GG\L	.	8.b-/|	.
16GJk 16D/	16BB-\Jk	.	16g/Jk|	.
=8	=8	=8	=8	=8
4A 4F#X/	4D\	.	8f#X/|	.
.	.	.	16r	.
.	.	.	16aa\KL|	.
4r	4ryy	.	8ddd\|	.
.	.	.	16r	.
.	.	.	16aa\K|	.
8.GL 8.D/	8.GG\L	.	8.bb-\|	.
16GJk 16D/	16BB-\Jk	.	16gg\Jk|	.
!!LO:LB:g=original
=9	=9	=9	=9	=9
4A 4F#X/	4D\	.	8ff#X\|	.
.	.	.	16r	.
.	.	.	16a'/KL	.
4r	4ryy	.	8dd'/	.
.	.	.	16r	.
.	.	.	16a'/K	.
8.GL 8.D/	8.GG\L	.	8.b-'/	.
16GJk 16D/	16BB-\Jk	.	16g'/Jk	.
*v	*v	*	*	*
=10	=10	=10	=10
!	!	!	!LO:DY:rj
.	.	(8qcc#X/	f
*	*	*2\right	*
4A 4F#X 4D\	.	2.ddtt\)	.
4r	.	.	.
4c 4A 4F# 4D\	sf	.	.
=11	=11	=11	=11
4r	.	2.ddttt\	.
4r	.	.	.
4Bn 4G 4D\	sf	.	.
=12	=12	=12	=12
4r	.	2.ddttt\	.
4r	.	.	.
4A 4F#X 4D\	sf	.	.
.	.	(16qqcc#X/LL	.
.	.	16qqdd/JJ)	.
=13	=13	=13	=13
!	!	!LO:TX:b:t=attaca\nMazur	!
!	!	!LO:TX:b:t=1.	!
2.r	.	2.r	.
!!LO:PB:g=original
=14||	=14||	=14||	=14||
!!!OMD: Mazur.
*>B	*>B	*>B	*>B
*k[f#]	*	*k[f#]	*
*M3/8	*	*M3/8	*
!	!	!	!LO:DY:rj
8GG/	.	16.bLL 16.g/	f
.	.	32ccJJk 32a/	.
8BL 8G 8D\	.	8ddL 8b\	.
8BJ 8G 8D\	.	8ggJ 8b\	.
=15	=15	=15	=15
8GG/	.	16.bLL 16.g/	.
.	.	32ccJJk 32a/	.
4B 4G 4D\	.	4dd 4b\	.
.	.	.	p
=16	=16	=16	=16
8D 8DD/	.	16.eeLL 16.cc\	.
.	.	32ddJJk 32b\	.
8cL 8F# 8D\	.	8ccL 8a/	.
8cJ 8F# 8D\	.	8d/J	.
=17	=17	=17	=17
8GG/	.	16.ddLL 16.b\	.
.	.	32ccJJk 32a\	.
4B 4G 4D\	.	4b 4g/	.
!!LO:LB:g=original
=18	=18	=18	=18
!	!	!	!LO:DY:rj
8GG/	.	16.bLL 16.g/	f
.	.	32ccJJk 32a/	.
8BL 8G 8D\	.	8ddL 8b\	.
8BJ 8G 8D\	.	8ggJ 8b\	.
=19	=19	=19	=19
8GG/	.	16.bLL 16.g/	.
.	.	32ccJJk 32a/	.
8BL 8G 8D\	.	8ddL 8b\	.
8BJ 8F# 8BB\	.	8dd#XJ 8b\	.
=20	=20	=20	=20
16.BLL 16.G 16.E\	.	16.eeLL 16.b\	.
32BJJk 32F# 32BB\	.	32ff#JJk 32dd#X 32b\	.
8BL 8G 8E\	.	8ggL 8ee 8b\	.
8AJ 8E 8C\	.	8aaJ 8ee 8cc\	.
=21	=21	=21	=21
.	.	(8qccc/	.
16B 16F# 16D#X 16BB\	.	16.bb\LL)	.
16r	.	.	.
.	.	32aa#X\JJk|	.
16B 16F# 16D# 16BB\	.	16bb\|	.
16r	.	16r	.
8dn 8A 8F# 8Dn\	.	8ddd 8ff# 8dd\	sf
!!LO:LB:g=original
=22	=22	=22	=22
!	!	!	!LO:DY:rj
8GG/	.	16.bLL 16.g/	f
.	.	32ccJJk 32a/	.
8BL 8G 8D\	.	8ddL 8b\	.
8BJ 8G 8D\	.	8ggJ 8b\	.
=23	=23	=23	=23
8GG/	.	16.bLL 16.g/	.
.	.	32ccJJk 32a/	.
4B 4G 4D\	.	4dd 4b\	.
=24	=24	=24	=24
8D 8DD/	.	16.eeLL 16.cc\	p
.	.	32ddJJk 32b\	.
8cL 8F# 8D\	.	8ccL 8a/	.
8cJ 8F# 8D\	.	8d/J	.
=25	=25	=25	=25
8GG/	.	16.ddLL 16.b\	.
.	.	32ccJJk 32a\	.
4B 4G 4D\	.	4b 4g/	.
=26	=26	=26	=26
!	!	!	!LO:DY:rj
8GG/	.	16.bLL 16.g/	f
.	.	32ccJJk 32a/	.
8BL 8G 8D\	.	8ddL 8b\	.
8BJ 8G 8D\	.	8ggJ 8b\	.
!!LO:LB:g=original
=27	=27	=27	=27
*^	*	*	*
4.C/	8C\L	.	(16ff#LL 16dd\	.
.	.	.	16eeJJ 16cc\)	.
.	8A 8E\	.	8cccL 8ee\	.
.	8AJ 8E-X\	.	8ee-XJ 8cc^<\	.
=28	=28	=28	=28	=28
*	*	*	*Xtuplet	*
4.D/	8D\L	.	24ddLL 24b'\	.
.	.	.	(24bb\	.
.	.	.	24aa\JJ)	.
.	8B 8G\	.	8gg\L	.
.	8BJ 8G\	.	8b\J	.
*v	*v	*	*	*
=29	=29	=29	=29
.	.	((8qdd/	.
8c 8F# 8D\	.	16.cc\LL))	.
.	.	32a\JJk|	.
8B 8G\	.	8g/|>	.
8r	.	8r	.
=30!|:	=30!|:	=30!|:	=30!|:
*>C	*.C	*>C	*>C
*^	*	*	*
!	!	!	!	!LO:DY:rj
4.C#X/	8C#\L	.	16.a/LL|	mf
.	.	.	32a/JJk|	.
.	.	.	(8qcc#X/	.
.	8A 8G 8E\	.	8.b/L)	.
.	8AJ 8G 8E\	.	.	.
.	.	.	16a/Jk|	.
!!LO:LB:g=original
=31	=31	=31	=31	=31
4.D/	8D\L	.	24ff#\LL|	.
.	.	.	(24cc#X\	.
.	.	.	24ee\JJ	.
.	8A 8F#\	.	8dd\L)	.
.	8AJ 8F#\	.	8b\J	.
=32	=32	=32	=32	=32
4.C#X/	8C#\L	.	16.a/LL|	.
.	.	.	32a/JJk|	.
.	.	.	(8qcc#X/	.
.	8A 8G 8E\	.	8.b/L)	.
.	8AJ 8G 8E\	.	.	.
.	.	.	16a/Jk|	.
=33	=33	=33	=33	=33
4.D/	8D\L	.	24a/LL|	.
.	.	.	(24e/	.
.	.	.	24f#/JJ)	.
!	!	!	!LO:TX:t=P:problem:mixed beam	!
.	8A 8F#\	.	(8d/L	.
.	8AJ 8F#\	.	16dd\Jk)	.
.	.	.	16r	.
=34	=34	=34	=34	=34
4.D#X/	8D#\L	.	16.b\LL	.
.	.	.	32b\JJk	.
.	.	.	(8qdd/	.
.	8B 8A 8F#\	.	8.cc\L)	.
.	8BJ 8A 8F#\	.	.	.
.	.	.	16b\Jk	.
!!LO:LB:g=original
=35	=35	=35	=35	=35
4.E/	8E\L	.	24gg'\LL	.
.	.	.	(24dd#X\	.
.	.	.	24ff#\JJ	.
.	8B 8G\	.	8ee\L)	.
.	8BJ 8G\	.	(8b'\J	.
*v	*v	*	*	*
=36	=36	=36	=36
8AA/	.	16.b/LL)	.
.	.	32a/JJk	.
8AL 8G 8E\	.	8b\L	.
8AJ 8G 8E\	.	8cc#X\J	.
=37	=37	=37	=37
.	.	8qee/	.
16A 16F# 16D\	.	16.dd\LL	.
16r	.	.	.
.	.	32cc#X\JJk	.
8A 8F# 8D\	.	8dd\	.
!	!	!	!LO:DY:rj
8F# 8FF#/	.	8ccn 8a 8d/	sf
=38	=38	=38	=38
!	!	!	!LO:DY:rj
8G 8GG/	.	16.bLL 16.g/	f
.	.	32ccJJk 32a/	.
8BL 8G 8D\	.	8ddL 8b\	.
8BJ 8G 8D\	.	8ggJ 8b\	.
!!LO:PB:g=original
=39	=39	=39	=39
8GG/	.	16.bLL 16.g/|	.
.	.	32ccJJk 32a/|	.
4B 4G 4D\	.	4dd 4b\|	.
=40	=40	=40	=40
!	!	!	!LO:DY:rj
8D 8DD/	.	16.eeLL 16.cc\|	p
.	.	32ddJJk 32b\|	.
8cL 8F# 8D\	.	8ccL 8a/|>	.
8cJ 8F# 8D\	.	8d/J|>	.
=41	=41	=41	=41
8GG/	.	16.ddLL 16.b\|	.
.	.	32ccJJk 32a\|	.
4B 4G 4D\	.	4b 4g/|>	.
=42	=42	=42	=42
!	!	!	!LO:DY:rj
8GG/	.	16.bLL 16.g/|	f
.	.	32ccJJk 32a/|	.
8BL 8G 8D\	.	8ddL 8b\|	.
8BJ 8G 8D\	.	8ggJ 8b\|	.
=43	=43	=43	=43
*^	*	*	*
4.C/	8C\L	.	(16ff#LL 16dd\	.
.	.	.	16eeJJ 16cc\)	.
.	8A 8E\	.	8cccL 8ee\|	.
.	8AJ 8E-X\	.	8ee-XJ 8cc^<\|	.
!!LO:LB:g=original
=44	=44	=44	=44	=44
4.D/	8D\L	.	24ddLL 24b\|	.
.	.	.	(24bb\	.
.	.	.	24aa\JJ	.
.	8B 8G\	.	8gg\L)	.
.	8BJ 8G\	.	8b'\J	.
*v	*v	*	*	*
=45	=45	=45	=45
.	.	(8qdd/	.
8c 8F# 8D\	.	16.cc\LL)	.
.	.	32a\JJk|	.
8B 8G\	.	8g/|>	.
!	!	!LO:DY:t=P:problem:fermata na kresce taktowej	!
8r	.	8r;	.
=46:|!	=46:|!	=46:|!	=46:|!
!!!OMD: Trio
*>D	*>D	*>D	*>D
*k[]	*	*k[]	*
*M3/8	*	*M3/8	*
*^	*	*	*
!	!	!	!	!LO:DY:rj
4.C/	8C\L	.	16.eeLL 16.cc\|	p
.	.	.	32eeJJk 32cc\|	.
.	8c 8G 8E\	.	4gg 4ee\|	.
.	8cJ 8G 8E\	.	.	.
=47	=47	=47	=47	=47
.	.	.	(<8qff 8qdd/	.
4.C/	8C\L	.	16.eeLL 16.cc\)	.
.	.	.	32eeJJk 32cc\|	.
.	8c 8G 8E\	.	4gg 4ee\|	.
.	8cJ 8G 8E\	.	.	.
!!LO:LB:g=original
=48	=48	=48	=48	=48
!	!	!	!	!LO:DY:rj
4.C/	8C\L	.	16.aaLL 16.ff\|	f
.	.	.	32bbJJk 32gg\|	.
.	8c 8A 8F\	.	8cccL 8aa\|	.
.	8cJ 8A 8F\	.	8aaJ 8ff\|	.
*v	*v	*	*	*
=49	=49	=49	=49
.	.	(<8qaa 8qff/	.
16C/	.	16.ggLL 16.ee\)	.
16r	.	.	.
.	.	32ff#XJJk 32dd#X\|	.
4c 4G 4E 4C\	.	4gg 4ee\|	.
=50	=50	=50	=50
8GL 8GG\	.	(24aa\LL	.
.	.	24gg\)	.
.	.	24cc#X'\JJ	.
8f 8B 8G\	.	8dd'\L	.
8fJ 8B 8G\	.	8ggJ 8ff 8dd'^<\	.
=51	=51	=51	=51
8C\L	.	(24aa\LL	.
.	.	24gg\)	.
.	.	24dd#X'\JJ	.
8e 8c 8G\	.	8ee'\L	.
8eJ 8c 8G\	.	8cccJ 8gg 8ee'^<\	.
!!LO:LB:g=original
=52	=52	=52	=52
*^	*	*	*
*	*	*	*tuplet	*
!	!	!	!LO:TUP:a:problem:klamra łukowa	!
4.D/	8D\L	.	(24eee\LL	.
.	.	.	24ddd\	.
.	.	.	24ccc#X\JJ)|	.
.	8c 8A 8F#X\	.	8ddd\L|	.
.	8cJ 8A 8F#\	.	8cccnJ 8dd\|	.
*v	*v	*	*	*
=53	=53	=53	=53
.	.	(>8qccc/	.
16.BLL 16.G\	.	16.bb\LL)	.
32cJJk 32F#X 32D\	.	32aa\JJk	.
4B 4G\	.	4gg\	.
=54	=54	=54	=54
*^	*	*	*
!	!	!	!	!LO:DY:rj
4.C/	8C\L	.	16.eeLL 16.cc\|	p
.	.	.	32eeJJk 32cc\|	.
.	8c 8G 8E\	.	4gg 4ee\|	.
.	8cJ 8G 8E\	.	.	.
=55	=55	=55	=55	=55
.	.	.	(<8qff 8qdd/	.
4.C/	8C\L	.	16.eeLL 16.cc\)|	.
.	.	.	32eeJJk 32cc\|	.
.	8c 8G 8E\	.	4gg 4ee\|	.
.	8cJ 8G 8E\	.	.	.
!!LO:LB:g=original
=56	=56	=56	=56	=56
!	!	!	!	!LO:DY:rj
4.C/	8C\L	.	16.aaLL 16.ff\	f
.	.	.	32bbJJk 32gg\	.
.	8c 8A 8F\	.	8cccL 8aa\	.
.	8cJ 8A 8F\	.	8aaJ 8ff\	.
*v	*v	*	*	*
=57	=57	=57	=57
.	.	(<8qaa 8qff/	.
8C/	.	16.ggLL 16.ee\)	.
.	.	32ff#XJJk 32dd#X\	.
4c 4G 4E 4C\	.	4gg 4ee\	.
=58	=58	=58	=58
!	!	!LO:TUP:a	!
8G 8GG\	.	(24aa\LL	.
.	.	24gg\)	.
.	.	24cc#X'\JJ	.
8fL 8B 8G\	.	8dd'\L	.
8fJ 8B 8G\	.	8ggJ 8ff 8dd'\	.
=59	=59	=59	=59
*	*	*Xtuplet	*
8C/	.	(24aa\LL	.
.	.	24gg\)	.
.	.	24dd#X'\JJ	.
8eL 8c 8G\	.	8ee'\L	.
8eJ 8c 8A\	.	8cccJ 8ee 8cc'^<\	.
!!LO:LB:g=original
=60	=60	=60	=60
*^	*	*	*
!	!	!	!	!LO:DY:rj
4F/	8F\L	.	(16bbt\LL	p
.	.	.	32aa\JJk)	.
.	.	.	32r	.
.	8dJ 8A\	.	(16ggT\LL	.
.	.	.	32ff\JJk)	.
.	.	.	32r	.
8f 8B 8G\	8ryy	.	(16eet\LL	.
.	.	.	32dd\JJk)	.
.	.	.	32r	.
*v	*v	*	*	*
=61	=61	=61	=61
16e 16c\	.	(32dd\KLL	.
.	.	16cc\JJ)	.
16r	.	.	.
.	.	32r	.
8c 8C\	.	8ccc 8ee 8cc\	.
!LO:TX:a:t=V&colon; S&colon;	!	!	!
8r	.	8r	.
!!LO:PB:g=original
=62||	=62||	=62||	=62||
=!|:	=!|:	=!|:	=!|:
*>E	*>E	*>E	*>E
*Xtuplet	*	*	*
!	!	!	!LO:DY:rj
24D'\LL	.	8ddd 8aa 8ff#X 8dd\|	f
24E'\	.	.	.
24F'\JJ	.	.	.
24F#X'\LL	.	8aa 8ff# 8dd'\	.
24G'\	.	.	.
24G#X'\JJ	.	.	.
(24B\LL	.	8r	.
24A\)	.	.	.
24D'\JJ	.	.	.
=63	=63	=63	=63
24G'\LL	.	8bb 8gg 8dd\|	.
24A'\	.	.	.
24A#X'\JJ	.	.	.
24B'\LL	.	8gg 8dd 8b\|	.
24c'\	.	.	.
24c#X'\JJ	.	.	.
(24e\LL	.	8r	.
24d\)	.	.	.
24G'\JJ	.	.	.
=64	=64	=64	=64
*tremolo	*	*	*
8cL 8A 8D\	.	24dd'\LL	.
.	.	24dd#X'\	.
.	.	24ee'\JJ	.
8c 8A 8D\	.	24ff'\LL	.
.	.	24ff#X'\	.
.	.	24gg'\JJ	.
8cJ 8A 8D\	.	24gg#X'\LL	.
.	.	24aa'\	.
.	.	24ccc'\JJ	.
*Xtremolo	*	*	*
!!LO:LB:g=original
=65	=65	=65	=65
8G 8GG/	.	24bb\LL	.
.	.	24eee\	.
.	.	24ddd\JJ	.
8BL 8G 8D\	.	24ggg\LL	.
.	.	24bb\	.
.	.	24ddd\JJ	.
8BJ 8G 8D\	.	24gg\LL	.
.	.	24bb\	.
.	.	24dd\JJ	.
=66	=66	=66	=66
24D'\LL	.	8ddd 8aa 8ff#X 8dd'\	.
24E'\	.	.	.
24F'\JJ	.	.	.
24F#X'\LL	.	8aa 8ff# 8dd'\	.
24G'\	.	.	.
24G#X'\JJ	.	.	.
(24B\LL	.	8r	.
24A\)	.	.	.
24D'\JJ	.	.	.
=67	=67	=67	=67
24G'\LL	.	8bb 8gg 8dd\	.
24A'\	.	.	.
24A#X'\JJ	.	.	.
24B'\LL	.	8gg 8dd 8b\	.
24c'\	.	.	.
24c#X'\JJ	.	.	.
(24e\LL	.	8r	.
24d\)	.	.	.
24G'\JJ	.	.	.
!!LO:LB:g=original
=68	=68	=68	=68
*tremolo	*	*	*
8cL 8A 8D\	.	24dd'\LL	.
.	.	24dd#X'\	.
.	.	24ee'\JJ	.
8c 8A 8D\	.	24ff'\LL	.
.	.	24ff#X'\	.
.	.	24gg'\JJ	.
8cJ 8A 8D\	.	24gg#X'\LL	.
.	.	24aa'\	.
.	.	24bb'\JJ	.
*Xtremolo	*	*	*
=69	=69	=69	=69
16B 16G\	.	16gg\	.
16r	.	16r	.
8G 8GG/	.	8ggg 8bb 8gg\	.
8r	.	8r	.
=70	=70	=70	=70
*^	*	*	*
!	!	!	!	!LO:DY:rj
4.C/	8C\L	.	16.eeLL 16.cc\|	p
.	.	.	32eeJJk 32cc\|	.
.	8c 8G 8E\	.	4gg 4ee\|	.
.	8cJ 8G 8E\	.	.	.
=71	=71	=71	=71	=71
.	.	.	(<8qff 8qdd/	.
4.C/	8C\L	.	16.eeLL 16.cc\)	.
.	.	.	32eeJJk 32cc\|	.
.	8c 8G 8E\	.	4gg 4ee\|	.
.	8cJ 8G 8E\	.	.	.
!!LO:LB:g=original
=72	=72	=72	=72	=72
!	!	!	!	!LO:DY:rj
4.C/	8C\L	.	16.aaLL 16.ff\	f
.	.	.	32bbJJk 32gg\	.
.	8c 8A 8F\	.	8cccL 8aa\	.
.	8cJ 8A 8F\	.	8aaJ 8ff\	.
*v	*v	*	*	*
=73	=73	=73	=73
.	.	(<8qaa 8qff/	.
8C/	.	16.ggLL 16.ee\)	.
.	.	32ff#XJJk 32dd#X\	.
4c 4G 4E 4C\	.	4gg 4ee\	.
=74	=74	=74	=74
!	!	!	!LO:DY:rj
8G 8GG\	.	(24aa\LL	f
.	.	24gg\)	.
.	.	24cc#X'\JJ	.
8fL 8B 8G\	.	8dd'\L	.
8fJ 8B 8G\	.	8ggJ 8ff 8dd'\	.
=75	=75	=75	=75
8C/	.	(24aa\LL	.
.	.	24gg\)	.
.	.	24dd#X'\JJ	.
8eL 8c 8G\	.	8ee\L	.
8eJ 8c 8A\	.	8cccJ 8ee 8cc\	.
!!LO:LB:g=original
=76	=76	=76	=76
*^	*	*	*
!	!	!	!	!LO:DY:rj
4F/	8F\L	.	(16bbt\LL	p
.	.	.	32aa\JJk)	.
.	.	.	32r	.
.	8dJ 8A\	.	(16ggT\LL	.
.	.	.	32ff\JJk)	.
.	.	.	32r	.
8f 8B 8G\	8ryy	.	(16eet\LL	.
.	.	.	32dd\JJk)	.
.	.	.	32r	.
*v	*v	*	*	*
=77	=77	=77	=77
16e 16c\	.	(32dd\KLL	.
.	.	16cc\JJ)	.
16r	.	.	.
.	.	32r	.
8c 8C\	.	8ccc 8ee 8cc^<\	.
!	!	!LO:TX:b:i:t=da capo Mazur\nal fine e poi la\nCoda	!
8r	.	8r	.
!!LO:PB:g=original
=78:|!	=78:|!	=78:|!	=78:|!
!!!OMD: Coda.
*>F	*>F	*>F	*>F
*k[f#]	*	*k[f#]	*
*^	*	*	*
!	!	!	!	!LO:DY:rj
4.GG/	8GG\L	.	16.dLL 16.B/	p
.	.	.	32eJJk 32c/	.
.	8G\	.	8fnL 8d/	.
.	8G\J	.	8dJ 8B/	.
=79	=79	=79	=79	=79
4.GG/	8GG\L	.	(16aLL 16fn/	.
.	.	.	16gJJ 16e/)	.
.	8G\	.	4e 4c/	.
.	8G\J	.	.	.
=80	=80	=80	=80	=80
4.GG/	8GG\L	.	16.aLL 16.f#X/	.
.	.	.	32bJJk 32g/	.
.	8G\	.	8ccL 8a/	.
.	8G\J	.	8aJ 8f#/	.
=81	=81	=81	=81	=81
4.GG/	8GG\L	.	(16ccLL 16a/	.
.	.	.	16bJJ 16g/)	.
.	8G\	.	4g 4B/	.
.	8G\J	.	.	.
*v	*v	*	*	*
!!LO:LB:g=original
=82	=82	=82	=82
*tremolo	*	*	*
!LO:TX:t=P:problem:mixed beam	!	!	!
(>16GG/LL	.	16.ddLL 16.b\	.
16G\	.	.	.
.	.	32eeJJk 32cc\	.
16GG/	.	8ffnL 8dd\	.
16G\	.	.	.
16GG/	.	8ddJ 8b\	.
16G\JJ)	.	.	.
=83	=83	=83	=83
!LO:TX:t=P:problem:mixed beam	!	!	!
(16GG/LL	.	(16aaLL 16ffn\	.
16G\	.	16ggJJ 16ee\)	.
16GG/	.	4ee 4cc\	.
16G\	.	.	.
16GG/	.	.	.
16G\JJ)	.	.	.
=84	=84	=84	=84
!LO:TX:t=P:problem:mixed beam	!	!	!
(16GG/LL	.	16.ff#XLL 16.a\	.
16G\	.	.	.
.	.	32ggJJk 32b\	.
16GG/	.	8aaL 8cc\	.
16G\	.	.	.
16GG/	.	8ff#J 8a\	.
16G\JJ)	.	.	.
=85	=85	=85	=85
!	!	!	!LO:DY:rj
8G 8GG\	.	24ggLL 24b'\	f
.	.	24bb'\	.
.	.	24eee'\JJ	.
8r	.	(24ccc#X\LL	.
.	.	24ddd\)	.
.	.	24bb'\JJ	.
8c 8A 8D\	.	24aa'\LL	.
.	.	24ee'\	.
.	.	24ff#'\JJ	.
!!LO:LB:g=original
=86	=86	=86	=86
8B 8G\	.	24gg'\LL	.
.	.	24bb'\	.
.	.	24eee'\JJ	.
8r	.	(24ccc#X\LL	.
.	.	24ddd\)	.
.	.	24bb'\JJ	.
8c 8A 8D\	.	24aa'\LL	.
.	.	24ee'\	.
!	!	!LO:TX:a:t=P:problem:trzy wykreślone takty	!
.	.	24ff#'\JJ	.
!!LO:LB:g=original
=87	=87	=87	=87
24BLL 24G'\	.	24gg'\LL	.
24A#X'\	.	24aa#X'\	.
24B'\JJ	.	24bb'\JJ	.
24c'\LL	.	24ccc'\LL	.
24c#X'\	.	24ccc#X'\	.
24d'\JJ	.	24ddd'\JJ	.
24d#X'\LL	.	24ddd#X'\LL	.
24e'\	.	24eee'\	.
24f#'\JJ	.	24fff#'\JJ	.
=88	=88	=88	=88
8g\	.	8ggg\	.
8r	.	8r	.
8r	.	8r	.
=89	=89	=89	=89
8G 8D 8GG\	.	8bb 8gg 8dd 8b\	.
8r	.	8r	.
16r	.	16r	.
16G 16D 16GG\	.	16g 16d 16B/	.
=90	=90	=90	=90
[4.G [4.D [4.GG\	.	[4.g [>4.d [4.B/	.
=91	=91	=91	=91
4.G_ 4.D_ 4.GG\_	.	4.g_ 4.d_> 4.B/_	.
!!LO:LB:g=original
=92	=92	=92	=92
4.G] 4.D] 4.GG\]	.	4.g] 4.d] 4.B/]	.
=93	=93	=93	=93
!	!	!LO:TX:b:t=sec.	!
8G 8D 8GG/	.	8gg 8dd 8b\	.
8r	.	8r	.
8r	.	8r	.
==	==	==	==
*-	*-	*-	*-
!!!system-decoration: {(s1,s2)}
!!!RDF**kern: > = above
!!!RDF**kern: < = below
!!!RDF**kern: | = vertical stroke
!!!ENC: Marta Lawrence
!!!END: 2021-06-20
!!!ENC: Marcin Jachim
!!!END: 2021-06-11
